packages/scratch-gui/src/components/debug-modal/icons/icon--add-sound-checkpoints.svg

<svg width="439" height="106" viewBox="0 0 439 106" fill="none" xmlns="http://www.w3.org/2000/svg">
<path d="M438.83 0H0V105.89H438.83V0Z" fill="white"/>
<path fill-rule="evenodd" clip-rule="evenodd" d="M249.39 2.41C249.86 1.93 250.51 1.66 251.18 1.65H252.67L323.92 1.06C325.33 1.05 326.47 2.18 326.49 3.58L326.7 29.03C326.71 30.44 325.58 31.58 324.18 31.6L252.93 32.18H251.44C250.77 32.2 250.12 32.47 249.65 32.95L246.08 36.58C245.61 37.06 244.96 37.33 244.29 37.34L236.22 37.41C235.55 37.41 234.9 37.15 234.41 36.68L230.78 33.11C230.3 32.64 229.65 32.37 228.97 32.38H227.48L222.39 32.43C220.98 32.44 219.84 31.31 219.82 29.91L219.61 4.47C219.6 3.06 220.73 1.92 222.13 1.9L227.22 1.86H228.71C229.38 1.84 230.03 2.11 230.52 2.58L234.15 6.15C234.63 6.62 235.28 6.89 235.96 6.88L244.03 6.81C244.7 6.81 245.35 6.53 245.82 6.05L249.39 2.42V2.41Z" fill="#23B689"/>
<path fill-rule="evenodd" clip-rule="evenodd" d="M249.51 69.6301C249.98 69.1501 250.63 68.8701 251.3 68.8701H252.79L293.5 68.4901C294.9 68.4801 296.05 69.6101 296.07 71.0101L296.3 96.4501C296.31 97.8601 295.18 99.0101 293.78 99.0201L253.07 99.3801H251.58C250.91 99.4001 250.26 99.6701 249.79 100.15L246.22 103.78C245.75 104.26 245.1 104.54 244.43 104.54L236.36 104.61C235.69 104.61 235.04 104.35 234.55 103.88L230.92 100.31C230.44 99.8401 229.79 99.5701 229.11 99.5801H227.62L222.53 99.6401C221.12 99.6501 219.98 98.5201 219.96 97.1201L219.73 71.6801C219.72 70.2701 220.85 69.1301 222.25 69.1101L227.34 69.0601H228.83C229.5 69.0401 230.15 69.3001 230.64 69.7801L234.27 73.3501C234.75 73.8201 235.4 74.0901 236.08 74.0801L244.15 74.0101C244.82 74.0101 245.47 73.7301 245.94 73.2501L249.51 69.6201V69.6301Z" fill="#7E69AD"/>
<path fill-rule="evenodd" clip-rule="evenodd" d="M127.56 53.28C127.97 52.74 128.58 52.39 129.25 52.3L130.73 52.1L171.09 46.73C172.48 46.54 173.76 47.52 173.95 48.92L177.31 74.14C177.5 75.53 176.52 76.81 175.12 77L134.76 82.37L133.28 82.57C132.61 82.66 132 83.01 131.59 83.55L128.5 87.59C128.09 88.13 127.48 88.48 126.81 88.57L118.81 89.63C118.14 89.72 117.46 89.54 116.93 89.13L112.89 86.04C112.35 85.63 111.68 85.45 111.01 85.54L109.53 85.74L104.49 86.41C103.1 86.6 101.82 85.62 101.63 84.22L98.2699 59C98.0799 57.61 99.0599 56.33 100.46 56.14L105.5 55.47L106.98 55.27C107.65 55.18 108.33 55.36 108.86 55.77L112.9 58.86C113.44 59.27 114.11 59.45 114.78 59.36L122.78 58.29C123.45 58.2 124.06 57.85 124.47 57.31L127.56 53.27V53.28Z" fill="#AE5AA2"/>
<path fill-rule="evenodd" clip-rule="evenodd" d="M249.83 35.54C250.3 35.06 250.95 34.78 251.62 34.77L253.11 34.75L293.82 34.26C295.22 34.24 296.38 35.37 296.4 36.77L296.71 62.21C296.73 63.62 295.6 64.77 294.2 64.79L253.49 65.28L252 65.3C251.33 65.3 250.68 65.58 250.21 66.07L246.66 69.71C246.19 70.19 245.54 70.47 244.87 70.48L236.8 70.58C236.13 70.58 235.47 70.33 234.99 69.86L231.35 66.31C230.87 65.84 230.22 65.58 229.54 65.59L228.05 65.61L222.96 65.67C221.55 65.69 220.4 64.56 220.38 63.16L220.07 37.72C220.05 36.31 221.18 35.16 222.58 35.14L227.67 35.08L229.16 35.06C229.83 35.06 230.49 35.31 230.97 35.78L234.61 39.33C235.09 39.8 235.74 40.06 236.42 40.05L244.49 39.95C245.16 39.95 245.81 39.67 246.28 39.18L249.83 35.54Z" stroke="#AE5AA2" stroke-width="3" stroke-miterlimit="10" stroke-linecap="round"/>
<path d="M223.09 54.67C222.67 54.4 222.25 54.13 221.83 53.87" stroke="#EECDE1" stroke-width="2.99" stroke-miterlimit="10" stroke-linecap="round"/>
<path d="M216.75 51.03C189.9 37.69 171.24 55.1 164.61 62.96" stroke="#EECDE1" stroke-width="2.99" stroke-miterlimit="10" stroke-linecap="round"/>
<path d="M162.81 65.24C162.24 66.01 161.95 66.46 161.95 66.46" stroke="#EECDE1" stroke-width="2.99" stroke-miterlimit="10" stroke-linecap="round"/>
<path d="M222.68 54.42C220.94 54.74 219.06 56.44 218.05 57.82C220.76 56.89 223.73 56.5 226.58 57.1C224.97 54.69 224.42 51.73 224.19 48.87C223.27 50.46 222.38 52.55 222.68 54.42Z" fill="#EECDE1"/>
<path d="M67.8701 68.94C68.8501 70.98 71.3601 75.09 76.3501 77.29C77.2401 77.67 78.1101 76.86 77.8901 75.98C77.1801 73.48 76.2701 69.32 77.2301 65.94C77.4901 65.23 78.0201 64.67 78.7001 64.42C84.4401 62.61 112.27 52.57 107.68 29.8C102.58 4.46002 80.3101 1.18002 60.3901 9.88002C40.2101 18.69 39.4801 32.95 42.4501 47.77C45.8501 64.94 61.2501 67.33 65.9201 67.7C66.8101 67.74 67.4901 68.19 67.8701 68.94Z" fill="#5FC8DE"/>
<path d="M66.4201 36.73C63.0801 35.83 62.2501 30.33 66.6301 49.73C66.6301 49.8 66.6301 49.87 66.7001 49.94C67.1201 51.96 65.1701 53.62 62.4601 53.62C59.7501 53.62 57.1101 51.95 56.6901 49.94C56.2701 47.92 58.2201 46.26 60.9301 46.26C61.4901 46.26 62.1101 46.33 62.6701 46.47C62.9501 46.54 63.2301 46.61 63.5001 46.75C64.2601 46.75 63.3601 44.66 61.8301 35.77C59.8801 24.72 64.6101 34.1 69.7501 33.27C74.8201 32.51 69.7501 37.58 66.4101 36.75L66.4201 36.73Z" fill="white"/>
<path d="M86.17 29.8401C82.83 28.9401 82 23.4401 86.38 42.8401C86.38 42.9101 86.38 42.9801 86.45 43.0501C86.87 45.0701 84.92 46.7301 82.2101 46.7301C79.5001 46.7301 76.8601 45.0601 76.4401 43.0501C76.0201 41.0301 77.9701 39.3701 80.6801 39.3701C81.2401 39.3701 81.86 39.4401 82.42 39.5801C82.7 39.6501 82.9801 39.7201 83.2501 39.8601C84.0101 39.8601 83.1101 37.7701 81.5801 28.8801C79.6301 17.8301 84.3601 27.2101 89.5101 26.4501C94.5801 25.6201 89.51 30.6901 86.17 29.8601V29.8401Z" fill="white"/>
</svg>

<?xml version="1.0" encoding="UTF-8"?><svg width="440" height="106" id="Layer_2" xmlns="http://www.w3.org/2000/svg" viewBox="0 0 438.83 105.89"><g id="Layer_1-2"><g><rect width="438.83" height="105.89" fill="#fff"/><g><path d="M249.39,2.41c.47-.48,1.12-.75,1.79-.76h1.49s71.25-.59,71.25-.59c1.41-.01,2.55,1.12,2.57,2.52l.21,25.45c.01,1.41-1.12,2.55-2.52,2.57l-71.25,.58h-1.49c-.67,.02-1.32,.29-1.79,.77l-3.57,3.63c-.47,.48-1.12,.75-1.79,.76l-8.07,.07c-.67,0-1.32-.26-1.81-.73l-3.63-3.57c-.48-.47-1.13-.74-1.81-.73h-1.49s-5.09,.05-5.09,.05c-1.41,.01-2.55-1.12-2.57-2.52l-.21-25.44c-.01-1.41,1.12-2.55,2.52-2.57l5.09-.04h1.49c.67-.02,1.32,.25,1.81,.72l3.63,3.57c.48,.47,1.13,.74,1.81,.73l8.07-.07c.67,0,1.32-.28,1.79-.76l3.57-3.63Z" fill="#23b689" fill-rule="evenodd"/><path d="M249.51,69.63c.47-.48,1.12-.76,1.79-.76h1.49s40.71-.38,40.71-.38c1.4-.01,2.55,1.12,2.57,2.52l.23,25.44c.01,1.41-1.12,2.56-2.52,2.57l-40.71,.36h-1.49c-.67,.02-1.32,.29-1.79,.77l-3.57,3.63c-.47,.48-1.12,.76-1.79,.76l-8.07,.07c-.67,0-1.32-.26-1.81-.73l-3.63-3.57c-.48-.47-1.13-.74-1.81-.73h-1.49s-5.09,.06-5.09,.06c-1.41,.01-2.55-1.12-2.57-2.52l-.23-25.44c-.01-1.41,1.12-2.55,2.52-2.57l5.09-.05h1.49c.67-.02,1.32,.24,1.81,.72l3.63,3.57c.48,.47,1.13,.74,1.81,.73l8.07-.07c.67,0,1.32-.28,1.79-.76l3.57-3.63Z" fill="#7e69ad" fill-rule="evenodd"/><path d="M127.56,53.28c.41-.54,1.02-.89,1.69-.98l1.48-.2,40.36-5.37c1.39-.19,2.67,.79,2.86,2.19l3.36,25.22c.19,1.39-.79,2.67-2.19,2.86l-40.36,5.37-1.48,.2c-.67,.09-1.28,.44-1.69,.98l-3.09,4.04c-.41,.54-1.02,.89-1.69,.98l-8,1.06c-.67,.09-1.35-.09-1.88-.5l-4.04-3.09c-.54-.41-1.21-.59-1.88-.5l-1.48,.2-5.04,.67c-1.39,.19-2.67-.79-2.86-2.19l-3.36-25.22c-.19-1.39,.79-2.67,2.19-2.86l5.04-.67,1.48-.2c.67-.09,1.35,.09,1.88,.5l4.04,3.09c.54,.41,1.21,.59,1.88,.5l8-1.07c.67-.09,1.28-.44,1.69-.98l3.09-4.04Z" fill="#ae5aa2" fill-rule="evenodd"/><path d="M249.83,35.54c.47-.48,1.12-.76,1.79-.77l1.49-.02,40.71-.49c1.4-.02,2.56,1.11,2.58,2.51l.31,25.44c.02,1.41-1.11,2.56-2.51,2.58l-40.71,.49-1.49,.02c-.67,0-1.32,.28-1.79,.77l-3.55,3.64c-.47,.48-1.12,.76-1.79,.77l-8.07,.1c-.67,0-1.33-.25-1.81-.72l-3.64-3.55c-.48-.47-1.13-.73-1.81-.72l-1.49,.02-5.09,.06c-1.41,.02-2.56-1.11-2.58-2.51l-.31-25.44c-.02-1.41,1.11-2.56,2.51-2.58l5.09-.06,1.49-.02c.67,0,1.33,.25,1.81,.72l3.64,3.55c.48,.47,1.13,.73,1.81,.72l8.07-.1c.67,0,1.32-.28,1.79-.77l3.55-3.64Z" fill="none" fill-rule="evenodd" stroke="#ae5aa2" stroke-dasharray="0 0 3 6" stroke-linecap="round" stroke-miterlimit="10" stroke-width="3"/><g><path d="M223.09,54.67c-.42-.27-.84-.54-1.26-.8" fill="none" stroke="#eecde1" stroke-linecap="round" stroke-miterlimit="10" stroke-width="2.99"/><path d="M216.75,51.03c-26.85-13.34-45.51,4.07-52.14,11.93" fill="none" stroke="#eecde1" stroke-dasharray="0 0 2.91 5.82" stroke-linecap="round" stroke-miterlimit="10" stroke-width="2.99"/><path d="M162.81,65.24c-.57,.77-.86,1.22-.86,1.22" fill="none" stroke="#eecde1" stroke-linecap="round" stroke-miterlimit="10" stroke-width="2.99"/><path d="M222.68,54.42c-1.74,.32-3.62,2.02-4.63,3.4,2.71-.93,5.68-1.32,8.53-.72-1.61-2.41-2.16-5.37-2.39-8.23-.92,1.59-1.81,3.68-1.51,5.55Z" fill="#eecde1"/></g></g><g><path d="M67.87,68.94c.98,2.04,3.49,6.15,8.48,8.35,.89,.38,1.76-.43,1.54-1.31-.71-2.5-1.62-6.66-.66-10.04,.26-.71,.79-1.27,1.47-1.52,5.74-1.81,33.57-11.85,28.98-34.62C102.58,4.46,80.31,1.18,60.39,9.88c-20.18,8.81-20.91,23.07-17.94,37.89,3.4,17.17,18.8,19.56,23.47,19.93,.89,.04,1.57,.49,1.95,1.24Z" fill="#5fc8de"/><path d="M66.42,36.73c-3.34-.9-4.17-6.4,.21,13,0,.07,0,.14,.07,.21,.42,2.02-1.53,3.68-4.24,3.68s-5.35-1.67-5.77-3.68c-.42-2.02,1.53-3.68,4.24-3.68,.56,0,1.18,.07,1.74,.21,.28,.07,.56,.14,.83,.28,.76,0-.14-2.09-1.67-10.98-1.95-11.05,2.78-1.67,7.92-2.5,5.07-.76,0,4.31-3.34,3.48Z" fill="#fff"/><path d="M86.17,29.84c-3.34-.9-4.17-6.4,.21,13,0,.07,0,.14,.07,.21,.42,2.02-1.53,3.68-4.24,3.68s-5.35-1.67-5.77-3.68c-.42-2.02,1.53-3.68,4.24-3.68,.56,0,1.18,.07,1.74,.21,.28,.07,.56,.14,.83,.28,.76,0-.14-2.09-1.67-10.98-1.95-11.05,2.78-1.67,7.93-2.43,5.07-.83,0,4.24-3.34,3.41Z" fill="#fff"/></g></g></g></svg>
